svgs/solid/arrow-up-triangle-square.svg

<svg xmlns="http://www.w3.org/2000/svg" viewBox="0 0 512 512"><!-- Font Awesome Pro 6.0.0-alpha2 by @fontawesome - https://fontawesome.com License - https://fontawesome.com/license (Commercial License) --><path d="M151.593 41.945C139.468 28.684 116.531 28.684 104.406 41.945L16.408 138.039C4.472 151.086 5.347 171.352 18.377 183.305C31.392 195.25 51.642 194.344 63.595 181.332L96 145.938V447.969C96 465.672 110.328 480 128 480S160 465.672 160 447.969V145.938L192.404 181.332C203.826 193.785 224.031 195.766 237.623 183.305C250.652 171.352 251.527 151.086 239.591 138.039L151.593 41.945ZM448.007 288.016H320.005C302.332 288.016 288.005 302.344 288.005 320.016V448C288.005 465.672 302.332 480 320.005 480H448.007C465.681 480 480.007 465.672 480.007 448V320.016C480.007 302.344 465.681 288.016 448.007 288.016ZM492.132 182.895L409.005 45.781C397.88 27.406 370.255 27.406 359.13 45.781L275.88 182.895C264.88 201.145 278.63 224.016 300.88 224.016H467.13C489.382 224.016 503.132 201.145 492.132 182.895Z"/></svg>

<svg xmlns="http://www.w3.org/2000/svg" viewBox="0 0 512 512"><!--! Font Awesome Pro 6.0.0-alpha3 by @fontawesome - https://fontawesome.com License - https://fontawesome.com/license (Commercial License) --><path d="M151.6 41.95c-12.12-13.26-35.06-13.26-47.19 0l-87.1 96.09C4.473 151.1 5.348 171.4 18.38 183.3c13.02 11.95 33.27 11.04 45.22-1.973L96 145.9v302C96 465.7 110.3 480 128 480s32-14.33 32-32.03V145.9L192.4 181.3c11.42 12.45 31.63 14.43 45.22 1.973c13.03-11.95 13.9-32.22 1.969-45.27L151.6 41.95zM448 288h-128c-17.67 0-31.1 14.33-31.1 32V448c0 17.67 14.33 32 31.1 32h128c17.67 0 32-14.33 32-32v-127.1C480 302.3 465.7 288 448 288zM492.1 182.9l-83.13-137.1c-11.12-18.38-38.75-18.38-49.88 0l-83.25 137.1c-11 18.25 2.75 41.12 25 41.12h166.3C489.4 224 503.1 201.1 492.1 182.9z"/></svg>
